src/assets/showcase/images/download.svg

<svg enable-background="new 0 0 64.126 64.126" height="64.126" viewBox="0 0 64.126 64.126" width="64.126" xmlns="http://www.w3.org/2000/svg"><path d="m62.346 7.837-4.988-6.056c-.713-1.069-2.137-1.781-3.919-1.781h-42.751c-1.782 0-3.208.712-4.276 1.781l-4.631 6.056c-1.068 1.426-1.781 2.851-1.781 4.632v44.532c0 3.92 3.207 7.125 7.126 7.125h49.875c3.919 0 7.125-3.205 7.125-7.125v-44.532c0-1.781-.713-3.206-1.78-4.632zm-30.284 43.82-19.593-19.594h12.47v-7.125h14.25v7.125h12.47zm-24.582-44.532 2.851-3.562h42.752l3.206 3.562z" fill="#404c51"/><path d="m39.188 24.963h-14.25v7.124h-12.469l19.593 19.596 19.596-19.596h-12.47z" fill="#ffd100"/><path d="m10.322 3.552-2.85 3.563h48.808l-3.206-3.563z" fill="#cfd7d8"/></svg>

<?xml version="1.0" encoding="utf-8"?>
<!-- Generator: Adobe Illustrator 15.1.0, SVG Export Plug-In . SVG Version: 6.00 Build 0)  -->
<!DOCTYPE svg PUBLIC "-//W3C//DTD SVG 1.1//EN" "http://www.w3.org/Graphics/SVG/1.1/DTD/svg11.dtd">
<svg version="1.1" id="Layer_1" xmlns="http://www.w3.org/2000/svg" xmlns:xlink="http://www.w3.org/1999/xlink" x="0px" y="0px"
	 width="64.126px" height="64.126px" viewBox="0 0 64.126 64.126" enable-background="new 0 0 64.126 64.126" xml:space="preserve">
<g>
	<g>
		<g id="archive">
			<path fill="#404C51" d="M62.346,7.837l-4.988-6.056C56.645,0.712,55.221,0,53.439,0H10.688C8.906,0,7.48,0.712,6.412,1.781
				L1.781,7.837C0.713,9.263,0,10.688,0,12.469v44.532c0,3.92,3.207,7.125,7.126,7.125h49.875c3.919,0,7.125-3.205,7.125-7.125
				V12.469C64.126,10.688,63.413,9.263,62.346,7.837z M32.062,51.657L12.469,32.063h12.47v-7.125h14.25v7.125h12.47L32.062,51.657z
				 M7.48,7.125l2.851-3.562h42.752l3.206,3.562H7.48z"/>
		</g>
	</g>
	<polygon fill="#FFD100" points="39.188,24.963 24.938,24.963 24.938,32.087 12.469,32.087 32.062,51.683 51.658,32.087 
		39.188,32.087 	"/>
	<polygon fill="#CFD7D8" points="10.322,3.552 7.472,7.115 56.28,7.115 53.074,3.552 	"/>
</g>
</svg>
